assets/svg/wallet_icon_profile_disablednotification.svg

<svg width="80" height="80" viewBox="0 0 80 80" fill="none" xmlns="http://www.w3.org/2000/svg">
<path d="M40.1033 8.05312H28.6205C27.6799 8.05312 26.8439 7.45156 26.5455 6.55781L25.1924 2.5H43.533L42.1799 6.55781C42.0342 6.99328 41.7553 7.37195 41.3827 7.64028C41.0101 7.90861 40.5625 8.05303 40.1033 8.05312ZM50.3596 68.1021V70.5203C50.3596 72.8641 48.4596 74.7641 46.1158 74.7641H27.3564C25.8471 74.7641 24.6221 75.9891 24.6221 77.4984H46.1158C49.9705 77.4984 53.0939 74.3734 53.0939 70.5203V69.188L50.3596 68.1021Z" fill="#E1EAF8"/>
<path d="M46.1139 78.0473H22.6061C18.4561 78.0473 15.0811 74.6707 15.0811 70.5223V61.791C15.0811 61.4895 15.3264 61.2441 15.6279 61.2441C15.9295 61.2441 16.1748 61.4895 16.1748 61.791V70.5223C16.1748 74.0691 19.0607 76.9535 22.6061 76.9535H46.1139C49.6607 76.9535 52.5451 74.0676 52.5451 70.5223V69.19C52.5451 68.8884 52.7904 68.6431 53.092 68.6431C53.3936 68.6431 53.6389 68.8884 53.6389 69.19V70.5223C53.6389 74.6707 50.2639 78.0473 46.1139 78.0473Z" fill="#9A9A9A"/>
<path d="M52.5441 9.47812V33.024C52.5441 33.3255 52.7895 33.5708 53.091 33.5708C53.3926 33.5708 53.6379 33.3255 53.6379 33.024V9.47812C53.6379 5.32812 50.2613 1.95312 46.1129 1.95312H22.6051C18.4551 1.95312 15.0801 5.32969 15.0801 9.47812V57.5375C15.0801 57.8391 15.3254 58.0844 15.627 58.0844C15.9285 58.0844 16.1738 57.8391 16.1738 57.5375V9.47812C16.1738 5.93125 19.0598 3.04688 22.6051 3.04688H46.1129C49.6598 3.04688 52.5441 5.93281 52.5441 9.47812Z" fill="#9A9A9A"/>
<path d="M47.9729 13H21.0271C19.9081 13 19 13.9684 19 15.1615V32.8385C19 34.0316 19.9081 35 21.0271 35H26.0218H47.9729C49.0919 35 50 34.0316 50 32.8385V15.1615C50 13.9684 49.0919 13 47.9729 13Z" fill="#E1EAF8"/>
<path fill-rule="evenodd" clip-rule="evenodd" d="M34.5015 16.0039C31.3192 16.0039 28.7375 18.5606 28.7375 21.7123V22.2304C28.7375 22.7435 28.5843 23.2463 28.2969 23.6724L27.4432 24.9423C26.4519 26.415 27.2091 28.4177 28.9337 28.8831C29.4965 29.0348 30.0628 29.1626 30.6324 29.2683V29.2717C31.2056 30.7836 32.7339 31.8404 34.5032 31.8404C36.2725 31.8404 37.8009 30.7836 38.3723 29.2717V29.2683C38.9437 29.1626 39.51 29.0348 40.0728 28.8831C41.7973 28.4177 42.5546 26.415 41.5632 24.9423L40.7096 23.6724C40.4221 23.2446 40.269 22.7435 40.269 22.2304V21.7123C40.2672 18.5606 37.6856 16.0039 34.5015 16.0039ZM37.0126 29.4745C35.3449 29.6722 33.6582 29.6722 31.9904 29.4745C32.5188 30.2262 33.4396 30.7358 34.5015 30.7358C35.5634 30.7358 36.4842 30.2262 37.0126 29.4745Z" fill="#9A9A9A"/>
<path d="M36.3123 44.7314C36.2311 44.7314 36.1483 44.7127 36.0701 44.6752L32.4233 42.8674C32.2959 42.8014 32.1996 42.6881 32.155 42.5518C32.1105 42.4155 32.1212 42.2672 32.1849 42.1388C32.2486 42.0103 32.3602 41.912 32.4957 41.8651C32.6312 41.8181 32.7797 41.8262 32.9092 41.8877L36.5545 43.6939C36.6844 43.7584 36.7834 43.8718 36.8297 44.0092C36.876 44.1466 36.8658 44.2968 36.8014 44.4267C36.7564 44.5181 36.6868 44.595 36.6004 44.6489C36.5139 44.7027 36.4142 44.7313 36.3123 44.7314ZM32.8858 58.9064C32.6842 58.9064 32.4889 58.7939 32.3936 58.6002C32.3299 58.47 32.3204 58.3199 32.3673 58.1828C32.4142 58.0457 32.5135 57.9328 32.6436 57.8689L36.2983 56.0783C36.4284 56.0146 36.5785 56.0051 36.7156 56.052C36.8527 56.0989 36.9656 56.1982 37.0295 56.3283C37.0932 56.4584 37.1027 56.6085 37.0558 56.7456C37.0089 56.8827 36.9096 56.9956 36.7795 57.0595L33.1264 58.8502C33.0483 58.8892 32.9655 58.9064 32.8858 58.9064ZM70.3076 42.1694C70.1186 42.1694 69.9342 42.071 69.8326 41.8944C69.7968 41.8322 69.7736 41.7635 69.7643 41.6922C69.755 41.621 69.7599 41.5486 69.7786 41.4792C69.7973 41.4099 69.8295 41.3449 69.8734 41.288C69.9173 41.231 69.9719 41.1833 70.0342 41.1476L73.5608 39.1194C73.6865 39.0485 73.8351 39.0301 73.9743 39.0682C74.1135 39.1064 74.232 39.198 74.3039 39.3231C74.3759 39.4483 74.3955 39.5968 74.3584 39.7363C74.3213 39.8758 74.2306 39.995 74.1061 40.0679L70.5795 42.096C70.4951 42.146 70.3998 42.1694 70.3076 42.1694ZM59.8842 35.4772C59.8063 35.4774 59.7292 35.4609 59.6581 35.4288C59.5871 35.3967 59.5238 35.3498 59.4724 35.2912C59.421 35.2325 59.3828 35.1636 59.3603 35.089C59.3378 35.0143 59.3316 34.9357 59.342 34.8585L59.8826 30.8257C59.9233 30.5257 60.1983 30.3147 60.4967 30.3569C60.7967 30.3976 61.0061 30.6726 60.9655 30.971L60.4248 35.0038C60.4071 35.1347 60.3426 35.2548 60.2432 35.3418C60.1438 35.4289 60.0163 35.477 59.8842 35.4772Z" fill="#FD4E4E"/>
<path d="M52 40C45.3719 40 40 45.3732 40 52C40 58.6281 45.3732 64 52 64C58.6281 64 64 58.6268 64 52C64 45.3719 58.6281 40 52 40ZM58.6629 57.3848C58.8322 57.5544 58.9273 57.7843 58.9273 58.0239C58.9273 58.2635 58.8322 58.4933 58.6629 58.6629C58.4861 58.8398 58.255 58.9276 58.0239 58.9276C57.7928 58.9276 57.5617 58.8398 57.3848 58.6629L52 53.2781L46.6152 58.6629C46.4383 58.8398 46.2072 58.9276 45.9761 58.9276C45.745 58.9276 45.5139 58.8398 45.3371 58.6629C45.1678 58.4933 45.0727 58.2635 45.0727 58.0239C45.0727 57.7843 45.1678 57.5544 45.3371 57.3848L50.7219 52L45.3371 46.6152C44.9846 46.2627 44.9846 45.6895 45.3371 45.3371C45.6895 44.9846 46.2627 44.9846 46.6152 45.3371L52 50.7219L57.3848 45.3371C57.7373 44.9846 58.3105 44.9846 58.6629 45.3371C59.0154 45.6895 59.0154 46.2627 58.6629 46.6152L53.2781 52L58.6629 57.3848Z" fill="#FD4E4E"/>
</svg>

<svg xmlns="http://www.w3.org/2000/svg" width="80" height="80" fill="none"><path fill="#E1EAF8" d="M40.103 8.053H28.62c-.94 0-1.776-.601-2.075-1.495L25.193 2.5h18.341L42.18 6.558a2.19 2.19 0 0 1-2.077 1.495m10.257 60.05v2.417c0 2.344-1.9 4.244-4.244 4.244h-18.76a2.735 2.735 0 0 0-2.734 2.734h21.494a6.98 6.98 0 0 0 6.978-6.978v-1.332z"/><path fill="#9A9A9A" d="M46.114 78.047H22.606c-4.15 0-7.525-3.376-7.525-7.525v-8.731a.548.548 0 0 1 1.094 0v8.731a6.44 6.44 0 0 0 6.431 6.432h23.508a6.44 6.44 0 0 0 6.431-6.432V69.19a.547.547 0 0 1 1.094 0v1.332c0 4.149-3.375 7.525-7.525 7.525M52.544 9.478v23.546a.548.548 0 0 0 1.094 0V9.478c0-4.15-3.377-7.525-7.525-7.525H22.605c-4.15 0-7.525 3.377-7.525 7.525v48.06a.547.547 0 0 0 1.094 0V9.478a6.44 6.44 0 0 1 6.431-6.431h23.508a6.44 6.44 0 0 1 6.431 6.431"/><path fill="#E1EAF8" d="M47.973 13H21.027C19.908 13 19 13.968 19 15.162v17.677c0 1.193.908 2.161 2.027 2.161h26.945c1.12 0 2.028-.968 2.028-2.161V15.162C50 13.968 49.092 13 47.973 13"/><path fill="#9A9A9A" fill-rule="evenodd" d="M34.502 16.004c-3.183 0-5.765 2.557-5.765 5.708v.518a2.6 2.6 0 0 1-.44 1.442l-.854 1.27c-.991 1.473-.234 3.476 1.49 3.941q.845.228 1.7.385v.004c.573 1.512 2.1 2.568 3.87 2.568s3.298-1.056 3.87-2.568v-.004a22 22 0 0 0 1.7-.385c1.724-.465 2.482-2.468 1.49-3.94l-.853-1.27a2.6 2.6 0 0 1-.441-1.443v-.518c-.002-3.151-2.583-5.708-5.767-5.708m2.51 13.47a21.3 21.3 0 0 1-5.022 0c.529.752 1.45 1.262 2.512 1.262 1.061 0 1.982-.51 2.51-1.262" clip-rule="evenodd"/><path fill="#FD4E4E" d="M36.312 44.731a.6.6 0 0 1-.242-.056l-3.647-1.808a.547.547 0 0 1 .486-.98l3.645 1.807a.547.547 0 0 1-.242 1.037m-3.426 14.175a.55.55 0 0 1-.519-.723.55.55 0 0 1 .277-.314l3.654-1.79a.547.547 0 0 1 .481.98l-3.653 1.791a.54.54 0 0 1-.24.056M70.308 42.17a.547.547 0 0 1-.274-1.021l3.527-2.029a.547.547 0 0 1 .545.949l-3.526 2.028a.54.54 0 0 1-.272.073m-10.424-6.692a.546.546 0 0 1-.542-.618l.54-4.033a.546.546 0 1 1 1.083.145l-.54 4.033a.55.55 0 0 1-.54.473M52 40c-6.628 0-12 5.373-12 12 0 6.628 5.373 12 12 12 6.628 0 12-5.373 12-12 0-6.628-5.372-12-12-12m6.663 17.385a.905.905 0 0 1-1.278 1.278L52 53.278l-5.385 5.385a.9.9 0 0 1-1.278 0 .904.904 0 0 1 0-1.278L50.722 52l-5.385-5.385a.905.905 0 0 1 1.278-1.278L52 50.722l5.385-5.385a.905.905 0 0 1 1.278 1.278L53.278 52z"/></svg>
